packages/icons/src/letter-case-lowercase.svg

<svg width="15" height="15" viewBox="0 0 15 15" fill="none" xmlns="http://www.w3.org/2000/svg">
  <path
    fill-rule="evenodd"
    clip-rule="evenodd"
    d="M3.69899 5.20703C2.05823 5.20703 0.809204 6.68569 0.809204 8.60972C0.809204 10.6337 2.15823 12.0124 3.69899 12.0124C4.52126 12.0124 5.37402 11.6693 5.9539 11.0223V11.53C5.9539 11.7785 6.15537 11.98 6.4039 11.98C6.65243 11.98 6.8539 11.7785 6.8539 11.53V5.72001C6.8539 5.47149 6.65243 5.27001 6.4039 5.27001C6.15537 5.27001 5.9539 5.47149 5.9539 5.72001V6.22269C5.40506 5.60075 4.59218 5.20703 3.69899 5.20703ZM5.9539 9.799V7.30117C5.56339 6.58064 4.74118 6.05757 3.8868 6.05757C2.9089 6.05757 1.83508 6.96581 1.83508 8.60955C1.83508 10.1533 2.80889 11.1615 3.8868 11.1615C4.76984 11.1615 5.57141 10.4957 5.9539 9.799ZM10.799 5.20703C9.15823 5.20703 7.9092 6.68569 7.9092 8.60972C7.9092 10.6337 9.25823 12.0124 10.799 12.0124C11.6215 12.0124 12.4744 11.6692 13.0543 11.0218V11.53C13.0543 11.7785 13.2558 11.98 13.5043 11.98C13.7529 11.98 13.9543 11.7785 13.9543 11.53V5.72C13.9543 5.47147 13.7529 5.27 13.5043 5.27C13.2558 5.27 13.0543 5.47147 13.0543 5.72V6.22318C12.5055 5.60095 11.6924 5.20703 10.799 5.20703ZM13.0543 9.79822V7.30196C12.664 6.58102 11.8415 6.05757 10.9868 6.05757C10.0089 6.05757 8.93508 6.96581 8.93508 8.60955C8.93508 10.1533 9.90889 11.1615 10.9868 11.1615C11.8702 11.1615 12.672 10.4952 13.0543 9.79822Z"
    fill="currentColor"
  />
</svg>

<svg xmlns="http://www.w3.org/2000/svg" width="15" height="15" fill="none"><path fill="currentColor" fill-rule="evenodd" d="M3.699 5.207c-1.64 0-2.89 1.479-2.89 3.403 0 2.024 1.35 3.402 2.89 3.402a3.06 3.06 0 0 0 2.255-.99v.508a.45.45 0 0 0 .9 0V5.72a.45.45 0 0 0-.9 0v.503a3 3 0 0 0-2.255-1.016m2.255 4.592V7.301c-.39-.72-1.213-1.243-2.067-1.243-.978 0-2.052.908-2.052 2.552 0 1.543.974 2.552 2.052 2.552.883 0 1.684-.666 2.067-1.363m4.845-4.592c-1.64 0-2.89 1.479-2.89 3.403 0 2.024 1.35 3.402 2.89 3.402a3.06 3.06 0 0 0 2.255-.99v.508a.45.45 0 0 0 .9 0V5.72a.45.45 0 1 0-.9 0v.503A3 3 0 0 0 10.8 5.207m2.255 4.591V7.302c-.39-.721-1.213-1.244-2.067-1.244-.978 0-2.052.908-2.052 2.552 0 1.543.974 2.552 2.052 2.552.883 0 1.685-.667 2.067-1.364" clip-rule="evenodd"/></svg>
